X:1
T:El Rinconade
T: 
T: 
T:El Rinconade
T:GALOP
T:Anonymous
T:GALOP.
T:Public Domain - https://imslp.org/wiki/El_Rinconade_(Anonymous)
T:Public Domain - https://imslp.org/wiki/El_Rinconade_(Anonymous)
T:Public Domain - https://imslp.org/wiki/El_Rinconade_(Anonymous)
C:Anonymous
Z:Public Domain - https://imslp.org/wiki/El_Rinconade_(Anonymous)
%%score { 1 | 2 }
L:1/8
Q:1/4=144
M:4/4
K:D
V:1 treble nm="Piano" snm="Pno."
V:2 bass 
V:1
"^Allegro con fuoco" z8 | %1
!ff!!<(! a'/4^g'/4=g'/4f'/4=f'/4e'/4^d'/4=d'/4c'/4=c'/4b/4^a/4=a/4^g/4=g/4f/4=f/4e/4^d/4=d/4c/4=c/4B/4^A/4=A/4^G/4=G/4F/4=F/4E/4^D/4=D/4 | %2
[I:staff +1] C/4=C/4B,/4^A,/4=A,/4^G,/4=G,/4F,/4=F,/4E,/4^D,/4=D,/4C,/4=C,/4B,,/4^A,,/4!<)! (=A,,/4_B,,/4A,,/4B,,/4A,,/4B,,/4A,,/4B,,/4) (A,,/4=B,,/4A,,/4B,,/4A,,/4B,,/4A,,/4B,,/4) | %3
[I:staff -1] x4 | z4 | %5
 (3(f'/a'/f'/)(3(d'/f'/d'/) (3(a/d'/a/)(3(f/a/f/) (3(d/f/d/)(3A/d/A/ (3(F/A/F/)(3(D/F/D/) | %6
 A,2 z3/2 [Aceg]/ !arpeggio!!fermata![Aceg]2 z | z4 !fermata!z ||[M:2/4] !invertedturn!a | %9
!mf! !wedge!d'([fa][^e^g][fa]) | !wedge![af']([fa][^e^g][fa]) |!>(! (ba)!>)!.g.e | %12
!>(! (ba)!>)!.g !invertedturn!a |!f! !wedge!d'([fa][^e^g][fa]) | !wedge![af']([fa][^e^g][fa]) | %15
 (b>a) !wedge!g!wedge!e | d3 ::!p!!8va(! (a/c'/) |{/f'} e'(^d'/f'/) e'(d'/f'/) | .e'.c'.a.c' | %20
 .b.e' .e.e' | .c'.e'.c'.a |{/f'} .e'(^d'/f'/) .e'(d'/f'/) | .e'.c'.a.c' | .b.e' .e.e' | %25
 a2 z!8va)! :: (b/4!p!a/4^g/4a/4) | .[fd'].[df] !^![fa]2 | .[fa].[Ad] !^![df]2 | %29
 [ce].[ca]/.[ca]/ .[ca].[ca] | (d'/a/f/a/) d !invertedturn!a | .d'.[df] !^![fa]2 | %32
 .[fa].[Ad] !^![df]2 | [ce].[ca]/.[ca]/ .[ca].[ca] |1 [fd']2 z :|2 [fd']2 z |: %36
 !>!.g!f!(a/g/) (f/e/d/c/) | d[gb] [fa]2 |!8va(! [bg']/[bg']/[bg'] [af'][ge'] | %39
 [af']/[af']/[af'] [ge'][fd']!8va)! |"^loco" !>!g(!>!a/g/) (f/e/d/c/) | d[gb] [fa]2 | %42
!8va(! [gg']/[gg']/[gg'] [af'][ge']!8va)! |"^loco" .[fd']!>(! (d ^c=c)!>)! |!p! B(=c/B/) ^AB | %45
 (d2 .=c) z | A(3(=c/d/c/) B^c | [=ce]2 [Bd] z | G(3(B/=c/B/) ^AB |!>(! A[=ce] [ce]2!>)! | %50
!>(! ed=cA!>)! | G2 z2 :: a(b/a/) (^g/a/b/c'/) | .d'.e' .f'2 |!8va(!{/a'} b'c'{/a'}b'c' | %55
 (a'/d'/f'/a'/) d''2!8va)! | a(b/a/) (^g/a/b/c'/) | .d'.e' .f'2 |{/a} bc{/a}bc | %59
!<(! .d(f/a/) .d' z!<)! ::[K:G] (.[db]/.[db]/.[db]) [db][ca] | [Bg][GB] [ce]>[Bd] | %62
 (.[Ac]/.[Ac]/.[Ac]/) z/ (.[ca]/.[ca]/.[ca]/) z/ | %63
 (.[Bg]/.[Bg]/.[Bg]/) z/ (.[db]/.[db]/.[db]/) z/ | [db]/[db]/[db] [db][ca] | [Bg][Gc] [ce]>[Bd] | %66
 (.[Ac]/.[Ac]/.[Ac]/) z/ .[Acdf]/.[Acdf]/.[Acdf]/ z/ |1 [Bg]3 d :|2 [Bg]2 z2 |: %69
[K:D]!f! [dfad'][dfad']/[dfad']/ [dfad'][dgb] | .[dfa]([af'][fd']).[fa] | %71
 .[eg](.[gb]/.[gb]/) ([fa][eg]) | [df][eg] [fa]2 | [dfad'][dfad']/[dfad']/ [dfad'][dgb] | %74
 .[dfa]([af'][fd']).[fa] | [eg][ee'] [ega][egc'] |1 [dfd']2 z2 :|2 %77
!f! [dfd'][dfa]/[dfa]/ [dfa][dfa] ||"_cresc." [egc'][ega]/[ega]/ [ega][ega] | %79
 [dfd'][dfa]/!ff![dfa]/ [dfa][dfa] |"_cresc." [egc'][ega]/[ega]/ [ega][ega] | [dfad']2 [dfad']2 | %82
 [dfad']2 [dfad']2 | [dfad']2 z3/2 !wedge![Ace]/ | %84
 !wedge![Adf]!wedge![Ace]!wedge![Adf]!wedge![Ace] | !wedge![Adf]2 z2 | !arpeggio![Acea]2 z2 | %87
 !arpeggio!!fermata![dfad']2 z2 | !fermata!z4 |] %89
V:2
!f! A,,,/A,,/A,,,/A,,/!ped! A,,, !fermata!z A,,,/A,,/A,,,/A,,/ A,,, !fermata!z!ped-up! | %1
!ped! !///-!A,,,2 A,,2 !///-!A,,,2 A,,2 | %2
 !///-!A,,,2 A,,2 A,,,/4_B,,,/4A,,,/4B,,,/4A,,,/4B,,,/4A,,,/4B,,,/4 A,,,/4=B,,,/4A,,,/4B,,,/4A,,,/4B,,,/4A,,,/4B,,,/4 | %3
 A,,,/4C,,/4E,,/4G,,/4 A,,/4C,/4E,/4G,/4 A,,/4C,/4E,/4G,/4 A,/4C/4[I:staff -1]F/4G/4 | %4
[I:staff +1] A,/4C/4[I:staff -1]E/4G/4 A/4c/4e/4g/4 A/4c/4e/4g/4 a/4c'/4f'/4!fermata!g'/4 | %5
[I:staff +1][K:treble] .[Ff]!ped-up!.[Dd] .[A,A].[F,F][K:bass] .[D,D].[A,,A,] .[F,,F,].[D,,D,] | %6
!ped! [A,,,A,,]2 z3/2 [A,,A,]/ !arpeggio!!fermata![A,,C,E,A,]2 z | z4 !fermata!z!ped-up! || %8
[M:2/4] z | D,[F,A,][F,A,][F,A,] | D,[F,A,][F,A,][F,A,] | A,,[C,E,A,][C,E,A,][C,E,A,] | %12
 D,[F,A,][F,A,][F,A,] | D,[F,A,D][F,A,D][F,A,D] | D,[F,A,D][F,A,D][F,A,D] | %15
 A,,[C,E,A,][C,E,A,][C,E,A,] | [D,F,][F,A,][D,F,] :: z | [A,,A,][A,CE][A,CE][A,CE] | %19
 A,[CE][CE][CE] | E,[^G,B,E][G,B,E][G,B,E] | A,[CE][CE][CE] | [A,,A,][A,CE][A,CE][A,CE] | %23
 A,[B,E][B,E][B,E] | E,[^G,B,E][G,B,E][G,B,E] | [A,C][CE][A,C] :: z | D,[F,A,][F,A,][F,A,] | %28
 D,[F,A,][F,A,][F,A,] | A,,[C,E,A,][C,E,A,][C,E,A,] | D,[F,A,][F,A,][F,A,] | D,[F,A,][F,A,][F,A,] | %32
 D,[F,A,][F,A,][F,A,] | A,,[C,E,A,][C,E,A,][C,E,A,] |1 [D,F,A,]2 z :|2 [D,F,A,]2 z |: %36
 A,,[E,G,A,]!ped![E,G,A,][E,G,A,] | D,[F,A,][F,A,][F,A,]!ped-up! | A,,[C,E,A,][C,E,A,][C,E,A,] | %39
 D,[F,A,][F,A,][F,A,] |!ped! A,,[E,G,A,][E,G,A,][E,G,A,] | D,[F,A,][F,A,][F,A,] | %42
 A,,[C,E,A,][C,E,A,][C,E,A,] | .[C,E,A,]!ped-up! z z2 | [G,,G,][B,D][B,D][B,D] | %45
 D,[F,A,=C][F,A,C][F,A,C] | D,[F,A,=C][F,A,C][F,A,C] | G,[B,D][B,D][B,D] | G,[B,D][B,D][B,D] | %49
 =C,[E,A,][E,A,][E,A,] | D,[F,A,=C][F,A,C][F,A,C] | [G,B,][B,D][G,B,] z :: %52
 [A,,A,][A,CEG][A,CEG][A,CEG] | [D,D][A,DF][A,DF][A,DF] | [A,,A,][A,EG][A,EG][A,EG] | %55
 [D,D][A,DF][A,DF][A,DF] |!ped! [A,,A,][A,CEG][A,CEG][A,CEG] | [D,D][A,DF][A,DF][A,DF]!ped-up! | %58
 [A,,A,][A,EG][A,EG][A,EG] | .DA,/F,/ .D, z ::[K:G]"^scherzando." [G,,G,][G,B,D][G,B,D][G,B,D] | %61
 G,[B,D][B,D][B,D] | D,[F,A,D][F,A,D][F,A,D] | G,[B,D][B,D][B,D] | [G,,G,][G,B,D][G,B,D][G,B,D] | %65
 G,[B,D][B,D][B,D] | D,[F,A,D][F,A,D][F,A,D] |1 G,[B,D]G, z :|2 [G,B,D]2 z2 |: %69
[K:D] [D,,D,][D,F,A,D][D,F,A,D][F,A,D] | D,[F,A,D][F,A,D][F,A,D] | [A,,A,][A,CEG][A,CEG][A,CEG] | %72
 [D,D][A,DF][A,DF][A,DF] | [D,,D,][D,F,A,D][D,F,A,D][F,A,D] | D,[F,A,D][F,A,D][F,A,D] | %75
 [A,,A,][A,EG][A,EG][A,EG] |1 [DF]A,D, z :|2 [D,F,A,D][D,F,A,D][D,F,A,D][D,F,A,D] || %78
 [A,,C,E,A,][A,,C,E,A,][A,,C,E,A,][A,,C,E,A,] | [D,F,]/A,/[D,F,]/A,/ [D,F,]/A,/[D,F,]/A,/ | %80
 [A,,E,]/A,/[A,,E,]/A,/ [A,,E,]/A,/[A,,E,]/A,/ | D,/D/C/B,/ A,/G,/F,/E,/ | %82
 .D,/ D,/C,/B,,/ A,,/G,,/F,,/E,,/ | D,,2 z3/2 [A,,A,]/ | [D,D][A,,A,][D,D][A,,A,] | [D,D]2 z2 | %86
 !arpeggio![A,,C,E,A,]2 z2 | !arpeggio!!fermata![D,,F,,A,,D,]2 z2 | !fermata!z4 |] %89

